X: 5
T: Los set gotxs
B: Llibre Vermeil
F:http://www.cervantesvirtual.com/s3/BVMC_OBRAS/ff6/fe3/e28/2b1/11d/fac/c70/021/85c/e60/64/mimes/imagenes/ff6fe3e2-82b1-11df-acc7-002185ce6064_109.jpg
F:http://www.cervantesvirtual.com/s3/BVMC_OBRAS/ff6/fe3/e28/2b1/11d/fac/c70/021/85c/e60/64/mimes/imagenes/ff6fe3e2-82b1-11df-acc7-002185ce6064_25.jpg
Z:Ali Corbin <ali.corbin:gmail.com>
N: 
M:2/4
L: 1/4
Q: 1/4=180
K: D Dorian
%%MIDI program 74
   c (B/A/)| B    c| d (c/B/)|A2 |(B/A/G/) F/|E  D|(E/D/E/) F/| E z |
w:Los set* gotxs re-comp-ta-*rem   Et**   de-vo-ta- ment** xan-tant
   c (B/A/)| B    c| d (c/B/)|A2 |(B/A/G/) F/|E  D|(E/D/E/) F/| E D ||
w:Hu- mil-* ment sa-lu- da-* rem   La**   dol-ca ver-ge**  Ma- ri-a.
M:3/4
   G>G  A |F E (F/E/)|F/ G/  A   E| G > G  A | F (E/D/) (E/D/)|E/ C/  D D||
w:Av-e Ma-ri-a, gra-*ci- a  ple-na  Do-mi-nus te-cum,*   Vir-* go se-re-na.
%

%%multicol start
%%leftmargin  2cm
%%rightmargin 10.5cm
%%begintext

Los set gotxs recomptarem
Et devotament xantant
Humilment saludarem
La dolca verge Maria.

Ave Maria, gracia plena
Dominus tecum, Virgo serena.
Ave Maria, gracia plena
Dominus tecum, Virgo serena.

Verge: fos anans del part
Pura, e sens falliment
En lo part, e prés lo part
Sens negun corrumpiment:
Lo Fill de Deus, Verge pia
De vos nasque verament.
Ave Maria, gracia plena,
Dominus tecum, Virgo serena

Verge: tres reys d'orient
Cavalcant amb gran corage
Al l'estrella precedent
Vengren al vostre bitage
Offerint vos de gradage
Aur et mirre et encenç.
Ave Maria, gracia plena,
Dominus tecum, Virgo serena

Verge: estant dolorosa
Per la mort del Fill molt car
Romangués tota joyosa
Can lo vis resuscitar
A vos, mare piadosa,
Primer se volch demostrar.
Ave Maria, gracia plena,
Dominos tecum, Virgo serena
%%endtext
%%multicol new
%%leftmargin 12cm
%%rightmargin 2cm
%%begintext

Verge: lo quint alegrage
Que'n agues del Fill molt car
Estant al Munt d'Olivage
Al cell l'on vehes puyar
On aurem tots alegrage
Si per nos vos plau pregar.
Ave Maria, gracia plena,
Dominus tecum, Virgo serena
 
Verge: quan foren complitz
Los dies de Pentacosta,
Ab vos eren aùnits
Los apôstols et decosta,
Sobre tots, sens nuylla costa,
Devalla l'(E)spirit Sant.
Ave Maria, gracia pleut,
Dominus tecum, Virgo serena
 
Verge: `l derrer alegratge
Que'n agues en aquest mon,
Vostre Fill ab gran coratge
Vos muntâ al cel pregon,
On sots tots temps coronada,
Regina perpetual.
Ave Maria, gracia plena,
Dominus tecum, Virgo serena
 
Tots donques nos esforcem,
En aquosta present vida,
Que peccats foragitem
de nostr'anima mesquina,
E vos, dolçe Verge pia,
Vuyllats-nos-lo empetrar.
Ave Maria, gracia plena,
Dominus tecum, Virgo serena.
%%endtext
%%multicol end

